packages/vibrant-icons/assets/icons/SearchText/Fill.svg

<svg width="24" height="24" viewBox="0 0 24 24" fill="none" xmlns="http://www.w3.org/2000/svg">
<path d="M13.8 5.0999C13.9105 5.0999 14 5.01036 14 4.8999V3.0999C14 2.98945 13.9105 2.8999 13.8 2.8999H2.2C2.08954 2.8999 2 2.98945 2 3.0999V4.8999C2 5.01036 2.08954 5.0999 2.2 5.0999H13.8Z" fill="#0C0C0C"/>
<path fill-rule="evenodd" clip-rule="evenodd" d="M6.8999 13.9486C6.8999 10.0557 10.0557 6.8999 13.9486 6.8999C17.8416 6.8999 20.9974 10.0557 20.9974 13.9486C20.9974 15.4982 20.4974 16.931 19.6499 18.0945L23.2772 21.7218L21.7216 23.2774L18.0942 19.6501C16.9308 20.4974 15.4981 20.9974 13.9486 20.9974C10.0557 20.9974 6.8999 17.8416 6.8999 13.9486ZM13.9486 9.0999C11.2708 9.0999 9.0999 11.2708 9.0999 13.9486C9.0999 16.6265 11.2708 18.7974 13.9486 18.7974C16.6265 18.7974 18.7974 16.6265 18.7974 13.9486C18.7974 11.2708 16.6265 9.0999 13.9486 9.0999Z" fill="#0C0C0C"/>
<path d="M7 9.3999C7 9.51036 6.91046 9.5999 6.8 9.5999H2.2C2.08954 9.5999 2 9.51036 2 9.3999V7.5999C2 7.48945 2.08954 7.3999 2.2 7.3999H6.8C6.91046 7.3999 7 7.48945 7 7.5999V9.3999Z" fill="#0C0C0C"/>
<path d="M4.8 14.0999C4.91046 14.0999 5 14.0104 5 13.8999V12.0999C5 11.9894 4.91046 11.8999 4.8 11.8999H2.2C2.08954 11.8999 2 11.9894 2 12.0999V13.8999C2 14.0104 2.08954 14.0999 2.2 14.0999H4.8Z" fill="#0C0C0C"/>
</svg>

<svg xmlns="http://www.w3.org/2000/svg" width="24" height="24" fill="none"><path fill="#0C0C0C" d="M13.8 5.1a.2.2 0 0 0 .2-.2V3.1a.2.2 0 0 0-.2-.2H2.2a.2.2 0 0 0-.2.2v1.8c0 .11.09.2.2.2z"/><path fill="#0C0C0C" fill-rule="evenodd" d="M6.9 13.949a7.049 7.049 0 1 1 12.75 4.146l3.627 3.627-1.555 1.555-3.628-3.627A7.049 7.049 0 0 1 6.9 13.95m7.049-4.85a4.849 4.849 0 1 0 0 9.698 4.849 4.849 0 0 0 0-9.697" clip-rule="evenodd"/><path fill="#0C0C0C" d="M7 9.4a.2.2 0 0 1-.2.2H2.2a.2.2 0 0 1-.2-.2V7.6c0-.11.09-.2.2-.2h4.6c.11 0 .2.09.2.2zM4.8 14.1a.2.2 0 0 0 .2-.2v-1.8a.2.2 0 0 0-.2-.2H2.2a.2.2 0 0 0-.2.2v1.8c0 .11.09.2.2.2z"/></svg>
